ClownTown_Unity/Assets/ClownTown/Settings/PostProcessing/ClownTownUI.CUBE
#Created by www.Photopea.com
TITLE "ClownTownUI.psd"
#LUT size
LUT_3D_SIZE 32
#data domain
DOMAIN_MIN 0.0 0.0 0.0
DOMAIN_MAX 1.0 1.0 1.0
#LUT data points
0.000000 0.000000 0.000000
0.031373 0.000000 0.000000
0.062745 0.000000 0.000000
0.098039 0.000000 0.000000
0.129412 0.000000 0.000000
0.160784 0.000000 0.000000
0.192157 0.000000 0.000000
0.227451 0.000000 0.000000
0.258824 0.000000 0.000000
0.290196 0.000000 0.000000
0.321569 0.000000 0.000000
0.352941 0.000000 0.000000
0.388235 0.000000 0.000000
0.419608 0.000000 0.000000
0.450980 0.000000 0.000000
0.482353 0.000000 0.000000
0.517647 0.000000 0.000000
0.549020 0.000000 0.000000
0.580392 0.000000 0.000000
0.611765 0.000000 0.000000
0.647059 0.000000 0.000000
0.678431 0.003922 0.003922
0.709804 0.003922 0.003922
0.741176 0.003922 0.003922
0.772549 0.003922 0.003922
0.807843 0.003922 0.003922
0.839216 0.003922 0.003922
0.870588 0.003922 0.003922
0.901961 0.003922 0.003922
0.937255 0.003922 0.003922
0.968627 0.003922 0.003922
1.000000 0.003922 0.003922
0.000000 0.031373 0.000000
0.031373 0.031373 0.000000
0.062745 0.031373 0.000000
0.098039 0.031373 0.000000
0.129412 0.031373 0.000000
0.160784 0.031373 0.000000
0.192157 0.027451 0.000000
0.227451 0.027451 0.000000
0.258824 0.031373 0.000000
0.290196 0.027451 0.000000
0.321569 0.031373 0.000000
0.352941 0.027451 0.000000
0.388235 0.027451 0.000000
0.419608 0.031373 0.000000
0.450980 0.023529 0.000000
0.482353 0.023529 0.000000
0.517647 0.027451 0.000000
0.549020 0.027451 0.000000
0.580392 0.027451 0.000000
0.611765 0.031373 0.000000
0.647059 0.031373 0.000000
0.678431 0.019608 0.003922
0.709804 0.019608 0.003922
0.741176 0.019608 0.003922
0.772549 0.019608 0.003922
0.807843 0.019608 0.003922
0.839216 0.023529 0.003922
0.870588 0.023529 0.003922
0.901961 0.023529 0.003922
0.937255 0.023529 0.003922
0.968627 0.027451 0.003922
1.000000 0.027451 0.003922
0.000000 0.062745 0.000000
0.031373 0.062745 0.000000
0.062745 0.062745 0.000000
0.098039 0.062745 0.000000
0.129412 0.062745 0.000000
0.160784 0.062745 0.000000
0.192157 0.058824 0.000000
0.227451 0.058824 0.000000
0.258824 0.062745 0.000000
0.290196 0.062745 0.000000
0.321569 0.062745 0.000000
0.352941 0.058824 0.000000
0.388235 0.054902 0.000000
0.419608 0.058824 0.000000
0.450980 0.054902 0.000000
0.482353 0.058824 0.000000
0.517647 0.062745 0.000000
0.549020 0.054902 0.000000
0.580392 0.054902 0.000000
0.611765 0.058824 0.000000
0.647059 0.062745 0.000000
0.678431 0.050980 0.003922
0.709804 0.050980 0.003922
0.741176 0.054902 0.003922
0.772549 0.058824 0.003922
0.807843 0.058824 0.003922
0.839216 0.062745 0.003922
0.870588 0.062745 0.003922
0.901961 0.047059 0.003922
0.937255 0.047059 0.003922
0.968627 0.047059 0.003922
1.000000 0.050980 0.003922
0.000000 0.098039 0.000000
0.031373 0.098039 0.000000
0.062745 0.098039 0.000000
0.098039 0.098039 0.000000
0.129412 0.098039 0.000000
0.160784 0.098039 0.000000
0.192157 0.094118 0.000000
0.227451 0.098039 0.000000
0.258824 0.098039 0.000000
0.290196 0.098039 0.000000
0.321569 0.098039 0.000000
0.352941 0.090196 0.000000
0.388235 0.094118 0.000000
0.419608 0.090196 0.000000
0.450980 0.098039 0.000000
0.482353 0.090196 0.000000
0.517647 0.098039 0.000000
0.549020 0.090196 0.000000
0.580392 0.098039 0.000000
0.611765 0.086275 0.000000
0.647059 0.094118 0.000000
0.678431 0.098039 0.003922
0.709804 0.086275 0.003922
0.741176 0.090196 0.003922
0.772549 0.094118 0.003922
0.807843 0.098039 0.003922
0.839216 0.082353 0.003922
0.870588 0.086275 0.003922
0.901961 0.086275 0.003922
0.937255 0.090196 0.003922
0.968627 0.094118 0.003922
1.000000 0.098039 0.003922
0.000000 0.129412 0.000000
0.035294 0.129412 0.000000
0.062745 0.129412 0.000000
0.098039 0.129412 0.000000
0.129412 0.129412 0.000000
0.160784 0.129412 0.000000
0.192157 0.125490 0.000000
0.227451 0.129412 0.000000
0.258824 0.129412 0.000000
0.290196 0.129412 0.000000
0.321569 0.129412 0.000000
0.352941 0.125490 0.000000
0.388235 0.129412 0.000000
0.419608 0.129412 0.000000
0.450980 0.129412 0.000000
0.482353 0.125490 0.000000
0.517647 0.121569 0.000000
0.549020 0.129412 0.000000
0.580392 0.125490 0.000000
0.611765 0.129412 0.000000
0.647059 0.125490 0.000000
0.678431 0.129412 0.003922
0.709804 0.117647 0.003922
0.741176 0.125490 0.003922
0.772549 0.129412 0.003922
0.807843 0.117647 0.003922
0.839216 0.121569 0.003922
0.870588 0.125490 0.003922
0.901961 0.129412 0.003922
0.937255 0.113725 0.003922
0.968627 0.117647 0.003922
1.000000 0.121569 0.003922
0.000000 0.160784 0.000000
0.031373 0.160784 0.000000
0.062745 0.160784 0.000000
0.098039 0.160784 0.000000
0.133333 0.160784 0.000000
0.160784 0.160784 0.000000
0.192157 0.156863 0.000000
0.227451 0.160784 0.000000
0.258824 0.156863 0.000000
0.290196 0.156863 0.000000
0.321569 0.160784 0.000000
0.352941 0.156863 0.000000
0.388235 0.156863 0.000000
0.419608 0.156863 0.000000
0.450980 0.160784 0.000000
0.482353 0.160784 0.000000
0.517647 0.160784 0.000000
0.549020 0.156863 0.000000
0.580392 0.152941 0.000000
0.611765 0.160784 0.000000
0.647059 0.152941 0.000000
0.678431 0.160784 0.003922
0.709804 0.152941 0.003922
0.741176 0.160784 0.003922
0.772549 0.149020 0.003922
0.807843 0.152941 0.003922
0.839216 0.160784 0.003922
0.870588 0.145098 0.003922
0.901961 0.149020 0.003922
0.937255 0.156863 0.003922
0.968627 0.160784 0.003922
1.000000 0.145098 0.003922
0.000000 0.192157 0.000000
0.031373 0.192157 0.000000
0.062745 0.192157 0.000000
0.098039 0.192157 0.000000
0.129412 0.192157 0.000000
0.164706 0.192157 0.000000
0.192157 0.188235 0.000000
0.227451 0.192157 0.000000
0.258824 0.188235 0.000000
0.290196 0.192157 0.000000
0.321569 0.188235 0.000000
0.352941 0.192157 0.000000
0.388235 0.192157 0.000000
0.419608 0.188235 0.000000
0.450980 0.192157 0.000000
0.482353 0.184314 0.000000
0.517647 0.184314 0.000000
0.549020 0.180392 0.000000
0.580392 0.192157 0.000000
0.611765 0.188235 0.000000
0.647059 0.184314 0.000000
0.678431 0.192157 0.003922
0.709804 0.184314 0.003922
0.741176 0.192157 0.003922
0.772549 0.184314 0.003922
0.807843 0.192157 0.003922
0.839216 0.180392 0.003922
0.870588 0.188235 0.003922
0.901961 0.192157 0.003922
0.937255 0.180392 0.003922
0.968627 0.184314 0.003922
1.000000 0.192157 0.003922
0.000000 0.227451 0.000000
0.031373 0.227451 0.000000
0.062745 0.227451 0.000000
0.101961 0.227451 0.000000
0.129412 0.227451 0.000000
0.160784 0.227451 0.000000
0.192157 0.227451 0.000000
0.227451 0.223529 0.000000
0.258824 0.227451 0.000000
0.290196 0.227451 0.000000
0.321569 0.227451 0.000000
0.352941 0.223529 0.000000
0.388235 0.219608 0.000000
0.419608 0.227451 0.000000
0.450980 0.223529 0.000000
0.482353 0.227451 0.000000
0.517647 0.219608 0.000000
0.549020 0.219608 0.000000
0.580392 0.219608 0.000000
0.611765 0.215686 0.000000
0.647059 0.215686 0.000000
0.678431 0.223529 0.003922
0.709804 0.219608 0.003922
0.741176 0.227451 0.003922
0.772549 0.219608 0.003922
0.807843 0.231373 0.003922
0.839216 0.219608 0.003922
0.870588 0.227451 0.003922
0.901961 0.215686 0.003922
0.937255 0.223529 0.003922
0.968627 0.231373 0.003922
1.000000 0.215686 0.003922
0.000000 0.258824 0.000000
0.031373 0.258824 0.000000
0.066667 0.258824 0.000000
0.098039 0.258824 0.000000
0.129412 0.258824 0.000000
0.164706 0.258824 0.000000
0.196078 0.258824 0.000000
0.231373 0.258824 0.000000
0.258824 0.254902 0.000000
0.290196 0.258824 0.000000
0.321569 0.258824 0.000000
0.352941 0.258824 0.000000
0.388235 0.254902 0.000000
0.419608 0.258824 0.000000
0.450980 0.254902 0.000000
0.482353 0.250980 0.000000
0.517647 0.254902 0.000000
0.549020 0.258824 0.000000
0.580392 0.258824 0.000000
0.611765 0.258824 0.000000
0.647059 0.258824 0.000000
0.678431 0.254902 0.003922
0.709804 0.250980 0.003922
0.741176 0.247059 0.003922
0.772549 0.254902 0.003922
0.807843 0.250980 0.003922
0.839216 0.258824 0.003922
0.870588 0.247059 0.003922
0.901961 0.254902 0.003922
0.937255 0.243137 0.003922
0.968627 0.254902 0.003922
1.000000 0.262745 0.003922
0.000000 0.290196 0.000000
0.035294 0.290196 0.000000
0.062745 0.290196 0.000000
0.101961 0.290196 0.000000
0.129412 0.290196 0.000000
0.164706 0.290196 0.000000
0.192157 0.290196 0.000000
0.231373 0.290196 0.000000
0.258824 0.290196 0.000000
0.290196 0.286275 0.000000
0.321569 0.286275 0.000000
0.352941 0.290196 0.000000
0.388235 0.282353 0.000000
0.419608 0.286275 0.000000
0.450980 0.286275 0.000000
0.482353 0.286275 0.000000
0.517647 0.282353 0.000000
0.549020 0.286275 0.000000
0.580392 0.286275 0.000000
0.611765 0.290196 0.000000
0.647059 0.290196 0.000000
0.678431 0.290196 0.003922
0.709804 0.286275 0.003922
0.741176 0.282353 0.003922
0.772549 0.294118 0.003922
0.807843 0.286275 0.003922
0.839216 0.278431 0.003922
0.870588 0.290196 0.003922
0.901961 0.278431 0.003922
0.937255 0.290196 0.003922
0.968627 0.274510 0.003922
1.000000 0.286275 0.003922
0.000000 0.321569 0.000000
0.031373 0.321569 0.000000
0.062745 0.321569 0.000000
0.098039 0.321569 0.000000
0.129412 0.321569 0.000000
0.160784 0.321569 0.000000
0.196078 0.321569 0.000000
0.227451 0.321569 0.000000
0.266667 0.321569 0.000000
0.294118 0.321569 0.000000
0.321569 0.317647 0.000000
0.352941 0.313725 0.000000
0.388235 0.321569 0.000000
0.419608 0.317647 0.000000
0.450980 0.317647 0.000000
0.482353 0.317647 0.000000
0.517647 0.317647 0.000000
0.549020 0.309804 0.000000
0.580392 0.313725 0.000000
0.611765 0.317647 0.000000
0.647059 0.321569 0.000000
0.678431 0.321569 0.003922
0.709804 0.317647 0.003922
0.741176 0.313725 0.003922
0.772549 0.309804 0.003922
0.807843 0.305882 0.003922
0.839216 0.317647 0.003922
0.870588 0.309804 0.003922
0.901961 0.321569 0.003922
0.937255 0.309804 0.003922
0.968627 0.321569 0.003922
1.000000 0.309804 0.003922
0.000000 0.352941 0.000000
0.035294 0.352941 0.000000
0.066667 0.352941 0.000000
0.101961 0.352941 0.000000
0.133333 0.352941 0.000000
0.168627 0.352941 0.000000
0.192157 0.352941 0.000000
0.231373 0.352941 0.000000
0.258824 0.352941 0.000000
0.290196 0.352941 0.000000
0.325490 0.352941 0.000000
0.352941 0.349020 0.000000
0.388235 0.349020 0.000000
0.419608 0.345098 0.000000
0.450980 0.349020 0.000000
0.482353 0.352941 0.000000
0.517647 0.352941 0.000000
0.549020 0.349020 0.000000
0.580392 0.341176 0.000000
0.611765 0.345098 0.000000
0.647059 0.352941 0.000000
0.678431 0.352941 0.003922
0.709804 0.352941 0.003922
0.741176 0.349020 0.003922
0.772549 0.345098 0.003922
0.807843 0.345098 0.003922
0.839216 0.337255 0.003922
0.870588 0.349020 0.003922
0.901961 0.341176 0.003922
0.937255 0.356863 0.003922
0.968627 0.345098 0.003922
1.000000 0.356863 0.003922
0.000000 0.388235 0.000000
0.039216 0.388235 0.000000
0.066667 0.388235 0.000000
0.101961 0.388235 0.000000
0.129412 0.388235 0.000000
0.164706 0.388235 0.000000
0.192157 0.388235 0.000000
0.227451 0.388235 0.000000
0.266667 0.388235 0.000000
0.294118 0.388235 0.000000
0.329412 0.388235 0.000000
0.356863 0.388235 0.000000
0.388235 0.384314 0.000000
0.419608 0.384314 0.000000
0.450980 0.380392 0.000000
0.482353 0.384314 0.000000
0.517647 0.392157 0.000000
0.549020 0.388235 0.000000
0.580392 0.384314 0.000000
0.611765 0.388235 0.000000
0.647059 0.380392 0.000000
0.678431 0.384314 0.003922
0.709804 0.384314 0.003922
0.741176 0.384314 0.003922
0.772549 0.384314 0.003922
0.807843 0.380392 0.003922
0.839216 0.376471 0.003922
0.870588 0.392157 0.003922
0.901961 0.384314 0.003922
0.937255 0.376471 0.003922
0.968627 0.388235 0.003922
1.000000 0.380392 0.003922
0.000000 0.419608 0.000000
0.031373 0.419608 0.000000
0.070588 0.419608 0.000000
0.098039 0.419608 0.000000
0.129412 0.419608 0.000000
0.168627 0.419608 0.000000
0.200000 0.419608 0.000000
0.227451 0.419608 0.000000
0.258824 0.419608 0.000000
0.298039 0.419608 0.000000
0.325490 0.419608 0.000000
0.356863 0.419608 0.000000
0.396078 0.419608 0.000000
0.419608 0.415686 0.000000
0.450980 0.415686 0.000000
0.482353 0.419608 0.000000
0.517647 0.415686 0.000000
0.549020 0.415686 0.000000
0.580392 0.411765 0.000000
0.611765 0.419608 0.000000
0.647059 0.411765 0.000000
0.678431 0.415686 0.003922
0.709804 0.419608 0.003922
0.741176 0.419608 0.003922
0.772549 0.419608 0.003922
0.807843 0.419608 0.003922
0.839216 0.415686 0.003922
0.870588 0.411765 0.003922
0.901961 0.403922 0.003922
0.937255 0.419608 0.003922
0.968627 0.411765 0.003922
1.000000 0.403922 0.003922
0.000000 0.450980 0.000000
0.031373 0.450980 0.000000
0.066667 0.450980 0.000000
0.098039 0.450980 0.000000
0.129412 0.450980 0.000000
0.160784 0.450980 0.000000
0.192157 0.450980 0.000000
0.235294 0.450980 0.000000
0.266667 0.450980 0.000000
0.298039 0.450980 0.000000
0.329412 0.450980 0.000000
0.360784 0.450980 0.000000
0.392157 0.450980 0.000000
0.423529 0.450980 0.000000
0.450980 0.447059 0.000000
0.482353 0.443137 0.000000
0.517647 0.450980 0.000000
0.549020 0.450980 0.000000
0.580392 0.450980 0.000000
0.611765 0.447059 0.000000
0.647059 0.443137 0.000000
0.678431 0.447059 0.003922
0.709804 0.450980 0.003922
0.741176 0.439216 0.003922
0.772549 0.439216 0.003922
0.807843 0.439216 0.003922
0.839216 0.435294 0.003922
0.870588 0.450980 0.003922
0.901961 0.447059 0.003922
0.937255 0.443137 0.003922
0.968627 0.435294 0.003922
1.000000 0.450980 0.003922
0.000000 0.482353 0.000000
0.035294 0.482353 0.000000
0.070588 0.482353 0.000000
0.101961 0.482353 0.000000
0.137255 0.482353 0.000000
0.160784 0.482353 0.000000
0.192157 0.482353 0.000000
0.227451 0.482353 0.000000
0.262745 0.482353 0.000000
0.294118 0.482353 0.000000
0.329412 0.482353 0.000000
0.352941 0.482353 0.000000
0.396078 0.482353 0.000000
0.419608 0.482353 0.000000
0.454902 0.482353 0.000000
0.482353 0.478431 0.000000
0.517647 0.474510 0.000000
0.549020 0.478431 0.000000
0.580392 0.478431 0.000000
0.611765 0.474510 0.000000
0.647059 0.474510 0.000000
0.678431 0.478431 0.003922
0.709804 0.466667 0.003922
0.741176 0.470588 0.003922
0.772549 0.474510 0.003922
0.807843 0.478431 0.003922
0.839216 0.474510 0.003922
0.870588 0.474510 0.003922
0.901961 0.466667 0.003922
0.937255 0.466667 0.003922
0.968627 0.482353 0.003922
1.000000 0.474510 0.003922
0.000000 0.517647 0.000000
0.039216 0.517647 0.000000
0.062745 0.517647 0.000000
0.098039 0.517647 0.000000
0.133333 0.517647 0.000000
0.160784 0.517647 0.000000
0.196078 0.517647 0.000000
0.231373 0.517647 0.000000
0.254902 0.517647 0.000000
0.294118 0.517647 0.000000
0.329412 0.517647 0.000000
0.352941 0.517647 0.000000
0.392157 0.517647 0.000000
0.427451 0.517647 0.000000
0.450980 0.517647 0.000000
0.486275 0.517647 0.000000
0.517647 0.509804 0.000000
0.549020 0.517647 0.000000
0.580392 0.517647 0.000000
0.611765 0.517647 0.000000
0.647059 0.517647 0.000000
0.678431 0.509804 0.003922
0.709804 0.517647 0.003922
0.741176 0.505882 0.003922
0.772549 0.509804 0.003922
0.807843 0.513725 0.003922
0.839216 0.513725 0.003922
0.870588 0.513725 0.003922
0.901961 0.509804 0.003922
0.937255 0.509804 0.003922
0.968627 0.501961 0.003922
1.000000 0.517647 0.003922
0.000000 0.549020 0.000000
0.039216 0.549020 0.000000
0.066667 0.549020 0.000000
0.105882 0.549020 0.000000
0.129412 0.549020 0.000000
0.168627 0.549020 0.000000
0.196078 0.549020 0.000000
0.235294 0.549020 0.000000
0.258824 0.549020 0.000000
0.298039 0.549020 0.000000
0.325490 0.549020 0.000000
0.360784 0.549020 0.000000
0.388235 0.549020 0.000000
0.427451 0.549020 0.000000
0.450980 0.549020 0.000000
0.490196 0.549020 0.000000
0.517647 0.549020 0.000000
0.549020 0.541176 0.000000
0.580392 0.545098 0.000000
0.611765 0.549020 0.000000
0.647059 0.549020 0.000000
0.678431 0.545098 0.003922
0.709804 0.552941 0.003922
0.741176 0.541176 0.003922
0.772549 0.545098 0.003922
0.807843 0.533333 0.003922
0.839216 0.533333 0.003922
0.870588 0.533333 0.003922
0.901961 0.533333 0.003922
0.937255 0.529412 0.003922
0.968627 0.549020 0.003922
1.000000 0.541176 0.003922
0.000000 0.580392 0.000000
0.027451 0.580392 0.000000
0.070588 0.580392 0.000000
0.098039 0.580392 0.000000
0.137255 0.580392 0.000000
0.164706 0.580392 0.000000
0.192157 0.580392 0.000000
0.235294 0.580392 0.000000
0.258824 0.580392 0.000000
0.286275 0.580392 0.000000
0.329412 0.580392 0.000000
0.356863 0.580392 0.000000
0.396078 0.580392 0.000000
0.423529 0.580392 0.000000
0.450980 0.580392 0.000000
0.494118 0.580392 0.000000
0.517647 0.580392 0.000000
0.560784 0.580392 0.000000
0.580392 0.572549 0.000000
0.611765 0.576471 0.000000
0.647059 0.580392 0.000000
0.678431 0.576471 0.003922
0.709804 0.568627 0.003922
0.741176 0.576471 0.003922
0.772549 0.584314 0.003922
0.807843 0.572549 0.003922
0.839216 0.572549 0.003922
0.870588 0.576471 0.003922
0.901961 0.572549 0.003922
0.937255 0.576471 0.003922
0.968627 0.572549 0.003922
1.000000 0.564706 0.003922
0.000000 0.611765 0.000000
0.031373 0.611765 0.000000
0.074510 0.611765 0.000000
0.101961 0.611765 0.000000
0.129412 0.611765 0.000000
0.160784 0.611765 0.000000
0.203922 0.611765 0.000000
0.231373 0.611765 0.000000
0.258824 0.611765 0.000000
0.290196 0.611765 0.000000
0.333333 0.611765 0.000000
0.360784 0.611765 0.000000
0.388235 0.611765 0.000000
0.419608 0.611765 0.000000
0.462745 0.611765 0.000000
0.490196 0.611765 0.000000
0.517647 0.611765 0.000000
0.549020 0.611765 0.000000
0.592157 0.611765 0.000000
0.611765 0.603922 0.000000
0.647059 0.607843 0.000000
0.678431 0.607843 0.003922
0.709804 0.600000 0.003922
0.741176 0.611765 0.003922
0.772549 0.600000 0.003922
0.807843 0.607843 0.003922
0.839216 0.611765 0.003922
0.870588 0.596078 0.003922
0.901961 0.596078 0.003922
0.937255 0.596078 0.003922
0.968627 0.592157 0.003922
1.000000 0.611765 0.003922
0.000000 0.647059 0.000000
0.031373 0.647059 0.000000
0.062745 0.647059 0.000000
0.109804 0.647059 0.000000
0.137255 0.647059 0.000000
0.168627 0.647059 0.000000
0.200000 0.647059 0.000000
0.231373 0.647059 0.000000
0.258824 0.647059 0.000000
0.290196 0.647059 0.000000
0.321569 0.647059 0.000000
0.352941 0.647059 0.000000
0.396078 0.647059 0.000000
0.427451 0.647059 0.000000
0.458824 0.647059 0.000000
0.486275 0.647059 0.000000
0.517647 0.647059 0.000000
0.549020 0.647059 0.000000
0.580392 0.647059 0.000000
0.623529 0.647059 0.000000
0.647059 0.639216 0.000000
0.678431 0.639216 0.003922
0.709804 0.635294 0.003922
0.741176 0.647059 0.003922
0.772549 0.635294 0.003922
0.807843 0.647059 0.003922
0.839216 0.631373 0.003922
0.870588 0.635294 0.003922
0.901961 0.639216 0.003922
0.937255 0.639216 0.003922
0.968627 0.639216 0.003922
1.000000 0.635294 0.003922
0.003922 0.678431 0.003922
0.035294 0.678431 0.003922
0.066667 0.678431 0.003922
0.098039 0.678431 0.003922
0.129412 0.678431 0.003922
0.160784 0.678431 0.003922
0.192157 0.678431 0.003922
0.223529 0.678431 0.003922
0.254902 0.678431 0.003922
0.290196 0.678431 0.003922
0.321569 0.678431 0.003922
0.352941 0.678431 0.003922
0.400000 0.678431 0.003922
0.431373 0.678431 0.003922
0.462745 0.678431 0.003922
0.494118 0.678431 0.003922
0.529412 0.678431 0.003922
0.560784 0.678431 0.003922
0.592157 0.678431 0.003922
0.623529 0.678431 0.003922
0.654902 0.678431 0.003922
0.678431 0.670588 0.003922
0.709804 0.666667 0.003922
0.741176 0.682353 0.003922
0.772549 0.674510 0.003922
0.807843 0.666667 0.003922
0.839216 0.670588 0.003922
0.870588 0.678431 0.003922
0.901961 0.678431 0.003922
0.937255 0.662745 0.003922
0.968627 0.662745 0.003922
1.000000 0.658824 0.003922
0.003922 0.709804 0.003922
0.035294 0.709804 0.003922
0.070588 0.709804 0.003922
0.101961 0.709804 0.003922
0.137255 0.709804 0.003922
0.168627 0.709804 0.003922
0.203922 0.709804 0.003922
0.235294 0.709804 0.003922
0.270588 0.709804 0.003922
0.301961 0.709804 0.003922
0.317647 0.709804 0.003922
0.352941 0.709804 0.003922
0.403922 0.709804 0.003922
0.419608 0.709804 0.003922
0.450980 0.709804 0.003922
0.486275 0.709804 0.003922
0.517647 0.709804 0.003922
0.552941 0.709804 0.003922
0.584314 0.709804 0.003922
0.619608 0.709804 0.003922
0.650980 0.709804 0.003922
0.686275 0.709804 0.003922
0.709804 0.701961 0.003922
0.741176 0.698039 0.003922
0.772549 0.709804 0.003922
0.807843 0.705882 0.003922
0.839216 0.709804 0.003922
0.870588 0.698039 0.003922
0.901961 0.701961 0.003922
0.937255 0.705882 0.003922
0.968627 0.705882 0.003922
1.000000 0.705882 0.003922
0.003922 0.741176 0.003922
0.035294 0.741176 0.003922
0.070588 0.741176 0.003922
0.105882 0.741176 0.003922
0.141176 0.741176 0.003922
0.160784 0.741176 0.003922
0.192157 0.741176 0.003922
0.227451 0.741176 0.003922
0.262745 0.741176 0.003922
0.298039 0.741176 0.003922
0.333333 0.741176 0.003922
0.349020 0.741176 0.003922
0.403922 0.741176 0.003922
0.419608 0.741176 0.003922
0.454902 0.741176 0.003922
0.490196 0.741176 0.003922
0.525490 0.741176 0.003922
0.560784 0.741176 0.003922
0.592157 0.741176 0.003922
0.611765 0.741176 0.003922
0.647059 0.741176 0.003922
0.682353 0.741176 0.003922
0.713725 0.741176 0.003922
0.741176 0.733333 0.003922
0.772549 0.729412 0.003922
0.807843 0.741176 0.003922
0.839216 0.733333 0.003922
0.870588 0.737255 0.003922
0.901961 0.745098 0.003922
0.937255 0.729412 0.003922
0.968627 0.729412 0.003922
1.000000 0.729412 0.003922
0.003922 0.772549 0.003922
0.039216 0.772549 0.003922
0.074510 0.772549 0.003922
0.109804 0.772549 0.003922
0.129412 0.772549 0.003922
0.164706 0.772549 0.003922
0.200000 0.772549 0.003922
0.239216 0.772549 0.003922
0.254902 0.772549 0.003922
0.294118 0.772549 0.003922
0.329412 0.772549 0.003922
0.364706 0.772549 0.003922
0.400000 0.772549 0.003922
0.419608 0.772549 0.003922
0.454902 0.772549 0.003922
0.490196 0.772549 0.003922
0.529412 0.772549 0.003922
0.545098 0.772549 0.003922
0.584314 0.772549 0.003922
0.619608 0.772549 0.003922
0.654902 0.772549 0.003922
0.690196 0.772549 0.003922
0.709804 0.772549 0.003922
0.745098 0.772549 0.003922
0.772549 0.764706 0.003922
0.807843 0.760784 0.003922
0.839216 0.772549 0.003922
0.870588 0.756863 0.003922
0.901961 0.764706 0.003922
0.937255 0.772549 0.003922
0.968627 0.776471 0.003922
1.000000 0.752941 0.003922
0.003922 0.807843 0.003922
0.039216 0.807843 0.003922
0.058824 0.807843 0.003922
0.098039 0.807843 0.003922
0.133333 0.807843 0.003922
0.172549 0.807843 0.003922
0.192157 0.807843 0.003922
0.231373 0.807843 0.003922
0.266667 0.807843 0.003922
0.286275 0.807843 0.003922
0.325490 0.807843 0.003922
0.364706 0.807843 0.003922
0.400000 0.807843 0.003922
0.419608 0.807843 0.003922
0.458824 0.807843 0.003922
0.494118 0.807843 0.003922
0.533333 0.807843 0.003922
0.552941 0.807843 0.003922
0.592157 0.807843 0.003922
0.607843 0.807843 0.003922
0.647059 0.807843 0.003922
0.686275 0.807843 0.003922
0.721569 0.807843 0.003922
0.741176 0.807843 0.003922
0.780392 0.807843 0.003922
0.807843 0.800000 0.003922
0.839216 0.811765 0.003922
0.870588 0.800000 0.003922
0.901961 0.807843 0.003922
0.937255 0.796078 0.003922
0.968627 0.800000 0.003922
1.000000 0.800000 0.003922
0.003922 0.839216 0.003922
0.043137 0.839216 0.003922
0.062745 0.839216 0.003922
0.101961 0.839216 0.003922
0.141176 0.839216 0.003922
0.160784 0.839216 0.003922
0.200000 0.839216 0.003922
0.239216 0.839216 0.003922
0.258824 0.839216 0.003922
0.298039 0.839216 0.003922
0.337255 0.839216 0.003922
0.356863 0.839216 0.003922
0.396078 0.839216 0.003922
0.415686 0.839216 0.003922
0.454902 0.839216 0.003922
0.494118 0.839216 0.003922
0.513725 0.839216 0.003922
0.552941 0.839216 0.003922
0.592157 0.839216 0.003922
0.611765 0.839216 0.003922
0.650980 0.839216 0.003922
0.690196 0.839216 0.003922
0.709804 0.839216 0.003922
0.749020 0.839216 0.003922
0.772549 0.839216 0.003922
0.811765 0.839216 0.003922
0.839216 0.831373 0.003922
0.870588 0.839216 0.003922
0.901961 0.827451 0.003922
0.937255 0.839216 0.003922
0.968627 0.819608 0.003922
1.000000 0.823529 0.003922
0.003922 0.870588 0.003922
0.043137 0.870588 0.003922
0.062745 0.870588 0.003922
0.105882 0.870588 0.003922
0.145098 0.870588 0.003922
0.164706 0.870588 0.003922
0.207843 0.870588 0.003922
0.227451 0.870588 0.003922
0.266667 0.870588 0.003922
0.290196 0.870588 0.003922
0.329412 0.870588 0.003922
0.349020 0.870588 0.003922
0.392157 0.870588 0.003922
0.431373 0.870588 0.003922
0.450980 0.870588 0.003922
0.494118 0.870588 0.003922
0.533333 0.870588 0.003922
0.552941 0.870588 0.003922
0.596078 0.870588 0.003922
