ClownTown_Unity/Assets/ClownTown/Settings/PostProcessing/ClownTownUI.CUBE
#Created by www.Photopea.com
TITLE "ClownTownUI.psd"
#LUT size
LUT_3D_SIZE 8
#data domain
#LUT data points
DOMAIN_MIN 0.000000 0.000000 0.000000
DOMAIN_MAX 0.903226 0.903226 0.903226
0.000000 0.000000 0.000000
0.129412 0.000000 0.000000
0.258824 0.000000 0.000000
0.388235 0.000000 0.000000
0.517647 0.000000 0.000000
0.647059 0.000000 0.000000
0.772549 0.003922 0.003922
0.901961 0.003922 0.003922
0.000000 0.129412 0.000000
0.129412 0.129412 0.000000
0.258824 0.129412 0.000000
0.388235 0.129412 0.000000
0.517647 0.121569 0.000000
0.647059 0.125490 0.000000
0.772549 0.129412 0.003922
0.901961 0.129412 0.003922
0.000000 0.258824 0.000000
0.129412 0.258824 0.000000
0.258824 0.254902 0.000000
0.388235 0.254902 0.000000
0.517647 0.254902 0.000000
0.647059 0.258824 0.000000
0.772549 0.254902 0.003922
0.901961 0.254902 0.003922
0.000000 0.388235 0.000000
0.129412 0.388235 0.000000
0.266667 0.388235 0.000000
0.388235 0.384314 0.000000
0.517647 0.392157 0.000000
0.647059 0.380392 0.000000
0.772549 0.384314 0.003922
0.901961 0.384314 0.003922
0.000000 0.517647 0.000000
0.133333 0.517647 0.000000
0.254902 0.517647 0.000000
0.392157 0.517647 0.000000
0.517647 0.509804 0.000000
0.647059 0.517647 0.000000
0.772549 0.509804 0.003922
0.901961 0.509804 0.003922
0.000000 0.647059 0.000000
0.137255 0.647059 0.000000
0.258824 0.647059 0.000000
0.396078 0.647059 0.000000
0.517647 0.647059 0.000000
0.647059 0.639216 0.000000
0.772549 0.635294 0.003922
0.901961 0.639216 0.003922
0.003922 0.772549 0.003922
0.129412 0.772549 0.003922
0.254902 0.772549 0.003922
0.400000 0.772549 0.003922
0.529412 0.772549 0.003922
0.654902 0.772549 0.003922
0.772549 0.764706 0.003922
0.901961 0.764706 0.003922
0.003922 0.901961 0.003922
0.129412 0.901961 0.003922
0.254902 0.901961 0.003922
0.403922 0.901961 0.003922
0.533333 0.901961 0.003922
0.658824 0.901961 0.003922
0.784314 0.901961 0.003922
0.901961 0.890196 0.003922
0.000000 0.000000 0.129412
0.129412 0.000000 0.129412
0.258824 0.000000 0.129412
0.388235 0.000000 0.129412
0.517647 0.000000 0.121569
0.647059 0.000000 0.125490
0.772549 0.003922 0.129412
0.901961 0.003922 0.129412
0.000000 0.129412 0.129412
0.129412 0.129412 0.129412
0.258824 0.129412 0.129412
0.388235 0.129412 0.129412
0.517647 0.129412 0.129412
0.647059 0.129412 0.129412
0.772549 0.129412 0.129412
0.901961 0.133333 0.133333
0.000000 0.258824 0.129412
0.129412 0.258824 0.129412
0.258824 0.258824 0.129412
0.388235 0.258824 0.129412
0.517647 0.258824 0.129412
0.647059 0.250980 0.129412
0.772549 0.250980 0.129412
0.901961 0.258824 0.133333
0.000000 0.388235 0.129412
0.129412 0.388235 0.129412
0.258824 0.388235 0.129412
0.388235 0.384314 0.129412
0.517647 0.384314 0.129412
0.647059 0.384314 0.129412
0.772549 0.388235 0.129412
0.901961 0.384314 0.133333
0.000000 0.517647 0.133333
0.129412 0.517647 0.129412
0.258824 0.517647 0.129412
0.396078 0.517647 0.129412
0.517647 0.513725 0.129412
0.647059 0.521569 0.129412
0.772549 0.509804 0.129412
0.901961 0.513725 0.133333
0.000000 0.647059 0.125490
0.129412 0.647059 0.129412
0.262745 0.647059 0.129412
0.384314 0.647059 0.129412
0.521569 0.647059 0.129412
0.647059 0.639216 0.129412
0.772549 0.643137 0.129412
0.901961 0.639216 0.133333
0.003922 0.772549 0.129412
0.129412 0.772549 0.129412
0.266667 0.772549 0.129412
0.388235 0.772549 0.129412
0.525490 0.772549 0.129412
0.658824 0.772549 0.129412
0.772549 0.764706 0.129412
0.901961 0.764706 0.133333
0.003922 0.901961 0.129412
0.133333 0.901961 0.133333
0.258824 0.901961 0.133333
0.384314 0.901961 0.133333
0.529412 0.901961 0.133333
0.658824 0.901961 0.133333
0.784314 0.901961 0.133333
0.901961 0.894118 0.133333
0.000000 0.000000 0.258824
0.133333 0.000000 0.258824
0.258824 0.000000 0.254902
0.388235 0.000000 0.254902
0.517647 0.000000 0.254902
0.647059 0.000000 0.258824
0.772549 0.003922 0.254902
0.901961 0.003922 0.254902
0.000000 0.129412 0.258824
0.129412 0.129412 0.258824
0.258824 0.129412 0.258824
0.388235 0.129412 0.258824
0.517647 0.129412 0.258824
0.647059 0.129412 0.250980
0.772549 0.129412 0.250980
0.901961 0.133333 0.258824
0.000000 0.254902 0.258824
0.129412 0.258824 0.258824
0.258824 0.258824 0.258824
0.388235 0.258824 0.258824
0.517647 0.258824 0.258824
0.647059 0.258824 0.258824
0.772549 0.258824 0.258824
0.901961 0.258824 0.258824
0.000000 0.388235 0.254902
0.129412 0.388235 0.258824
0.258824 0.388235 0.258824
0.388235 0.388235 0.258824
0.517647 0.388235 0.258824
0.647059 0.388235 0.258824
0.772549 0.380392 0.258824
0.901961 0.380392 0.258824
0.000000 0.517647 0.254902
0.129412 0.517647 0.258824
0.258824 0.517647 0.258824
0.388235 0.517647 0.258824
0.517647 0.513725 0.258824
0.647059 0.513725 0.258824
0.772549 0.513725 0.258824
0.901961 0.517647 0.258824
0.000000 0.647059 0.258824
0.129412 0.647059 0.262745
0.258824 0.647059 0.258824
0.388235 0.647059 0.258824
0.525490 0.647059 0.258824
0.647059 0.643137 0.258824
0.772549 0.647059 0.258824
0.901961 0.639216 0.258824
0.003922 0.772549 0.254902
0.129412 0.772549 0.250980
0.258824 0.772549 0.258824
0.392157 0.772549 0.258824
0.525490 0.772549 0.258824
0.647059 0.772549 0.258824
0.772549 0.768627 0.258824
0.901961 0.772549 0.258824
0.003922 0.901961 0.254902
0.133333 0.901961 0.258824
0.258824 0.901961 0.258824
0.396078 0.901961 0.258824
0.517647 0.901961 0.258824
0.654902 0.901961 0.258824
0.772549 0.901961 0.258824
0.901961 0.894118 0.258824
0.000000 0.000000 0.388235
0.129412 0.000000 0.388235
0.266667 0.000000 0.388235
0.388235 0.000000 0.384314
0.517647 0.000000 0.376471
0.647059 0.000000 0.380392
0.772549 0.003922 0.384314
0.901961 0.003922 0.384314
0.000000 0.129412 0.388235
0.129412 0.129412 0.388235
0.262745 0.129412 0.388235
0.388235 0.129412 0.384314
0.517647 0.129412 0.384314
0.647059 0.129412 0.384314
0.772549 0.129412 0.388235
0.901961 0.133333 0.384314
0.000000 0.254902 0.388235
0.129412 0.258824 0.388235
0.258824 0.258824 0.388235
0.388235 0.258824 0.388235
0.517647 0.258824 0.388235
0.647059 0.258824 0.388235
0.772549 0.258824 0.380392
0.901961 0.258824 0.380392
0.000000 0.384314 0.388235
0.129412 0.384314 0.388235
0.258824 0.388235 0.388235
0.388235 0.388235 0.388235
0.517647 0.388235 0.388235
0.647059 0.388235 0.388235
0.772549 0.388235 0.388235
0.901961 0.388235 0.388235
0.000000 0.517647 0.392157
0.129412 0.517647 0.384314
0.258824 0.517647 0.388235
0.388235 0.517647 0.388235
0.517647 0.517647 0.388235
0.647059 0.517647 0.388235
0.772549 0.513725 0.388235
0.901961 0.509804 0.388235
0.000000 0.647059 0.380392
0.129412 0.647059 0.384314
0.258824 0.647059 0.388235
0.388235 0.647059 0.388235
0.521569 0.647059 0.388235
0.647059 0.643137 0.388235
0.772549 0.643137 0.388235
0.901961 0.643137 0.388235
0.003922 0.772549 0.384314
0.129412 0.772549 0.388235
0.258824 0.772549 0.392157
0.388235 0.772549 0.388235
0.525490 0.772549 0.388235
0.650980 0.772549 0.388235
0.772549 0.768627 0.388235
0.901961 0.764706 0.388235
0.003922 0.901961 0.384314
0.133333 0.901961 0.384314
0.258824 0.901961 0.380392
0.388235 0.901961 0.388235
0.521569 0.901961 0.388235
0.654902 0.901961 0.388235
0.776471 0.901961 0.388235
0.901961 0.898039 0.388235
0.000000 0.000000 0.517647
0.133333 0.000000 0.517647
0.270588 0.000000 0.517647
0.392157 0.000000 0.517647
0.517647 0.000000 0.509804
0.647059 0.000000 0.517647
0.772549 0.003922 0.509804
0.901961 0.003922 0.509804
0.000000 0.121569 0.517647
0.129412 0.129412 0.517647
0.258824 0.129412 0.517647
0.396078 0.129412 0.517647
0.517647 0.129412 0.513725
0.647059 0.129412 0.505882
0.772549 0.129412 0.509804
0.901961 0.133333 0.513725
0.000000 0.254902 0.517647
0.129412 0.258824 0.517647
0.258824 0.258824 0.517647
0.392157 0.258824 0.517647
0.517647 0.258824 0.513725
0.647059 0.258824 0.513725
0.772549 0.258824 0.513725
0.901961 0.258824 0.517647
0.000000 0.392157 0.517647
0.129412 0.384314 0.517647
0.258824 0.388235 0.517647
0.388235 0.388235 0.517647
0.517647 0.388235 0.517647
0.647059 0.388235 0.517647
0.772549 0.388235 0.513725
0.901961 0.388235 0.509804
0.000000 0.509804 0.517647
0.129412 0.513725 0.517647
0.258824 0.513725 0.517647
0.388235 0.517647 0.517647
0.517647 0.517647 0.517647
0.647059 0.517647 0.517647
0.772549 0.517647 0.517647
0.901961 0.517647 0.517647
0.000000 0.647059 0.517647
0.129412 0.647059 0.521569
0.258824 0.647059 0.513725
0.388235 0.647059 0.517647
0.517647 0.647059 0.517647
0.647059 0.647059 0.517647
0.772549 0.643137 0.517647
0.901961 0.643137 0.517647
0.003922 0.772549 0.509804
0.129412 0.772549 0.525490
0.258824 0.772549 0.513725
0.388235 0.772549 0.513725
0.517647 0.772549 0.517647
0.650980 0.772549 0.517647
0.772549 0.768627 0.517647
0.901961 0.772549 0.517647
0.003922 0.901961 0.509804
0.133333 0.901961 0.513725
0.258824 0.901961 0.517647
0.388235 0.901961 0.521569
0.517647 0.901961 0.517647
0.654902 0.901961 0.517647
0.772549 0.901961 0.517647
0.901961 0.898039 0.517647
0.000000 0.000000 0.647059
0.137255 0.000000 0.647059
0.258824 0.000000 0.647059
0.396078 0.000000 0.647059
0.517647 0.000000 0.647059
0.647059 0.000000 0.639216
0.772549 0.003922 0.635294
0.901961 0.003922 0.639216
0.000000 0.125490 0.647059
0.129412 0.129412 0.647059
0.262745 0.129412 0.647059
0.400000 0.129412 0.647059
0.521569 0.129412 0.647059
0.647059 0.129412 0.639216
0.772549 0.129412 0.643137
0.901961 0.133333 0.639216
0.000000 0.258824 0.647059
0.129412 0.250980 0.647059
0.258824 0.258824 0.647059
0.388235 0.258824 0.647059
0.525490 0.258824 0.647059
0.647059 0.258824 0.643137
0.772549 0.258824 0.647059
0.901961 0.258824 0.639216
0.000000 0.380392 0.647059
0.129412 0.384314 0.647059
0.258824 0.388235 0.647059
0.388235 0.388235 0.647059
0.521569 0.388235 0.647059
0.647059 0.388235 0.643137
0.772549 0.388235 0.643137
0.901961 0.388235 0.643137
0.000000 0.517647 0.647059
0.129412 0.521569 0.647059
0.258824 0.513725 0.647059
0.388235 0.517647 0.647059
0.517647 0.517647 0.647059
0.647059 0.517647 0.647059
0.772549 0.517647 0.643137
0.901961 0.517647 0.643137
0.000000 0.639216 0.647059
0.129412 0.639216 0.647059
0.258824 0.643137 0.647059
0.388235 0.643137 0.647059
0.517647 0.647059 0.647059
0.647059 0.647059 0.647059
0.772549 0.647059 0.647059
0.901961 0.647059 0.647059
0.003922 0.772549 0.654902
0.129412 0.772549 0.643137
0.258824 0.772549 0.647059
0.388235 0.772549 0.650980
0.517647 0.772549 0.643137
0.647059 0.772549 0.647059
0.772549 0.772549 0.647059
0.901961 0.772549 0.647059
0.003922 0.901961 0.639216
0.133333 0.901961 0.639216
0.258824 0.901961 0.654902
0.388235 0.901961 0.643137
0.517647 0.901961 0.643137
0.647059 0.901961 0.647059
0.772549 0.901961 0.647059
0.901961 0.898039 0.647059
0.003922 0.003922 0.772549
0.129412 0.003922 0.772549
0.254902 0.003922 0.772549
0.400000 0.003922 0.772549
0.529412 0.003922 0.772549
0.654902 0.003922 0.772549
0.772549 0.003922 0.764706
0.901961 0.003922 0.764706
0.003922 0.129412 0.772549
0.129412 0.129412 0.772549
0.266667 0.129412 0.772549
0.388235 0.129412 0.772549
0.525490 0.129412 0.772549
0.658824 0.129412 0.772549
0.772549 0.129412 0.764706
0.901961 0.133333 0.764706
0.003922 0.254902 0.772549
0.129412 0.250980 0.772549
0.258824 0.258824 0.772549
0.392157 0.258824 0.772549
0.525490 0.258824 0.772549
0.647059 0.258824 0.772549
0.772549 0.258824 0.768627
0.901961 0.258824 0.772549
0.003922 0.384314 0.772549
0.129412 0.388235 0.772549
0.258824 0.392157 0.772549
0.388235 0.388235 0.772549
0.525490 0.388235 0.772549
0.650980 0.388235 0.772549
0.772549 0.388235 0.768627
0.901961 0.388235 0.764706
0.003922 0.509804 0.772549
0.129412 0.525490 0.772549
0.258824 0.513725 0.772549
0.388235 0.513725 0.772549
0.517647 0.517647 0.772549
0.650980 0.517647 0.772549
0.772549 0.517647 0.768627
0.901961 0.517647 0.772549
0.003922 0.654902 0.772549
0.129412 0.643137 0.772549
0.258824 0.647059 0.772549
0.388235 0.650980 0.772549
0.517647 0.643137 0.772549
0.647059 0.647059 0.772549
0.772549 0.647059 0.772549
0.901961 0.647059 0.772549
0.003922 0.764706 0.772549
0.129412 0.764706 0.772549
0.258824 0.768627 0.772549
0.388235 0.768627 0.772549
0.517647 0.768627 0.772549
0.647059 0.772549 0.772549
0.772549 0.772549 0.772549
0.901961 0.772549 0.772549
0.003922 0.901961 0.764706
0.133333 0.901961 0.764706
0.258824 0.901961 0.772549
0.388235 0.901961 0.776471
0.517647 0.901961 0.772549
0.647059 0.901961 0.772549
0.772549 0.901961 0.772549
0.901961 0.901961 0.772549
0.003922 0.003922 0.901961
0.129412 0.003922 0.901961
0.254902 0.003922 0.901961
0.403922 0.003922 0.901961
0.533333 0.003922 0.901961
0.658824 0.003922 0.901961
0.784314 0.003922 0.901961
0.901961 0.003922 0.890196
0.003922 0.129412 0.901961
0.133333 0.133333 0.901961
0.258824 0.133333 0.901961
0.384314 0.133333 0.901961
0.529412 0.133333 0.901961
0.658824 0.133333 0.901961
0.784314 0.133333 0.901961
0.901961 0.133333 0.894118
0.003922 0.254902 0.901961
0.133333 0.258824 0.901961
0.258824 0.258824 0.901961
0.396078 0.258824 0.901961
0.517647 0.258824 0.901961
0.654902 0.258824 0.901961
0.772549 0.258824 0.901961
0.901961 0.258824 0.894118
0.003922 0.384314 0.901961
0.133333 0.384314 0.901961
0.258824 0.380392 0.901961
0.388235 0.388235 0.901961
0.521569 0.388235 0.901961
0.654902 0.388235 0.901961
0.776471 0.388235 0.901961
0.901961 0.388235 0.898039
0.003922 0.509804 0.901961
0.133333 0.513725 0.901961
0.258824 0.517647 0.901961
0.388235 0.521569 0.901961
0.517647 0.517647 0.901961
0.654902 0.517647 0.901961
0.772549 0.517647 0.901961
0.901961 0.517647 0.898039
0.003922 0.639216 0.901961
0.133333 0.639216 0.901961
0.258824 0.654902 0.901961
0.388235 0.643137 0.901961
0.517647 0.643137 0.901961
0.647059 0.647059 0.901961
0.772549 0.647059 0.901961
0.901961 0.647059 0.898039
0.003922 0.764706 0.901961
0.133333 0.764706 0.901961
0.258824 0.772549 0.901961
0.388235 0.776471 0.901961
0.517647 0.772549 0.901961
0.647059 0.772549 0.901961
0.772549 0.772549 0.901961
0.901961 0.772549 0.901961
0.003922 0.890196 0.901961
0.133333 0.894118 0.901961
0.258824 0.894118 0.901961
0.388235 0.898039 0.901961
0.517647 0.898039 0.901961
0.647059 0.898039 0.901961
0.772549 0.901961 0.901961
0.901961 0.901961 0.901961
