ClownTown_Unity/Assets/ClownTown/Settings/PostProcessing/ClownTownUI.CUBE
#Created by www.Photopea.com
TITLE "ClownTownUI.psd"
#LUT size
LUT_3D_SIZE 5
#data domain
#LUT data points
DOMAIN_MIN 0.000000 0.000000 0.000000
DOMAIN_MAX 0.903226 0.903226 0.903226
0.000000 0.000000 0.000000
0.227451 0.000000 0.000000
0.450980 0.000000 0.000000
0.678431 0.003922 0.003922
0.901961 0.003922 0.003922
0.000000 0.227451 0.000000
0.227451 0.223529 0.000000
0.450980 0.223529 0.000000
0.678431 0.223529 0.003922
0.901961 0.215686 0.003922
0.000000 0.450980 0.000000
0.235294 0.450980 0.000000
0.450980 0.447059 0.000000
0.678431 0.447059 0.003922
0.901961 0.447059 0.003922
0.003922 0.678431 0.003922
0.223529 0.678431 0.003922
0.462745 0.678431 0.003922
0.678431 0.670588 0.003922
0.901961 0.678431 0.003922
0.003922 0.901961 0.003922
0.235294 0.901961 0.003922
0.447059 0.901961 0.003922
0.678431 0.901961 0.003922
0.901961 0.890196 0.003922
0.000000 0.000000 0.227451
0.227451 0.000000 0.223529
0.450980 0.000000 0.223529
0.678431 0.003922 0.223529
0.901961 0.003922 0.215686
0.000000 0.223529 0.227451
0.227451 0.227451 0.227451
0.450980 0.227451 0.227451
0.678431 0.227451 0.227451
0.901961 0.231373 0.231373
0.000000 0.450980 0.223529
0.227451 0.450980 0.227451
0.450980 0.447059 0.227451
0.678431 0.450980 0.227451
0.901961 0.450980 0.231373
0.003922 0.678431 0.223529
0.227451 0.678431 0.227451
0.450980 0.678431 0.227451
0.678431 0.674510 0.227451
0.901961 0.674510 0.231373
0.003922 0.901961 0.235294
0.231373 0.901961 0.231373
0.450980 0.901961 0.231373
0.690196 0.901961 0.231373
0.901961 0.894118 0.231373
0.000000 0.000000 0.450980
0.235294 0.000000 0.450980
0.450980 0.000000 0.447059
0.678431 0.003922 0.447059
0.901961 0.003922 0.447059
0.000000 0.223529 0.450980
0.227451 0.227451 0.450980
0.450980 0.227451 0.447059
0.678431 0.227451 0.450980
0.901961 0.231373 0.450980
0.000000 0.447059 0.450980
0.227451 0.447059 0.450980
0.450980 0.450980 0.450980
0.678431 0.450980 0.450980
0.901961 0.450980 0.450980
0.003922 0.678431 0.447059
0.227451 0.678431 0.450980
0.450980 0.678431 0.450980
0.678431 0.674510 0.450980
0.901961 0.674510 0.450980
0.003922 0.901961 0.447059
0.231373 0.901961 0.450980
0.450980 0.901961 0.450980
0.686275 0.901961 0.450980
0.901961 0.898039 0.450980
0.003922 0.003922 0.678431
0.223529 0.003922 0.678431
0.462745 0.003922 0.678431
0.678431 0.003922 0.670588
0.901961 0.003922 0.678431
0.003922 0.223529 0.678431
0.227451 0.227451 0.678431
0.450980 0.227451 0.678431
0.678431 0.227451 0.674510
0.901961 0.231373 0.674510
0.003922 0.447059 0.678431
0.227451 0.450980 0.678431
0.450980 0.450980 0.678431
0.678431 0.450980 0.674510
0.901961 0.450980 0.674510
0.003922 0.670588 0.678431
0.227451 0.674510 0.678431
0.450980 0.674510 0.678431
0.678431 0.678431 0.678431
0.901961 0.678431 0.678431
0.003922 0.901961 0.678431
0.231373 0.901961 0.674510
0.450980 0.901961 0.674510
0.678431 0.901961 0.678431
0.901961 0.898039 0.678431
0.003922 0.003922 0.901961
0.235294 0.003922 0.901961
0.466667 0.003922 0.901961
0.678431 0.003922 0.901961
0.901961 0.003922 0.890196
0.003922 0.235294 0.901961
0.231373 0.231373 0.901961
0.450980 0.231373 0.901961
0.690196 0.231373 0.901961
0.901961 0.231373 0.894118
0.003922 0.447059 0.901961
0.231373 0.450980 0.901961
0.450980 0.450980 0.901961
0.686275 0.450980 0.901961
0.901961 0.450980 0.898039
0.003922 0.678431 0.901961
0.231373 0.674510 0.901961
0.450980 0.674510 0.901961
0.678431 0.678431 0.901961
0.901961 0.678431 0.898039
0.003922 0.890196 0.901961
0.231373 0.894118 0.901961
0.450980 0.898039 0.901961
0.678431 0.898039 0.901961
0.901961 0.901961 0.901961
