ClownTown_Unity/Assets/ClownTown/Settings/PostProcessing/SnowBros.CUBE
#Created by www.Photopea.com
TITLE "SnowBros.psd"
#LUT size
LUT_3D_SIZE 16
#data domain
DOMAIN_MIN 0.0 0.0 0.0
DOMAIN_MAX 1.0 1.0 1.0
#LUT data points
0.000000 0.000000 0.000000
0.066667 0.000000 0.000000
0.133333 0.000000 0.000000
0.200000 0.000000 0.000000
0.266667 0.000000 0.000000
0.333333 0.000000 0.000000
0.400000 0.000000 0.000000
0.466667 0.000000 0.000000
0.533333 0.000000 0.000000
0.600000 0.000000 0.000000
0.666667 0.000000 0.000000
0.733333 0.003922 0.003922
0.800000 0.003922 0.003922
0.866667 0.003922 0.003922
0.933333 0.003922 0.003922
1.000000 0.003922 0.003922
0.000000 0.066667 0.000000
0.066667 0.066667 0.000000
0.133333 0.066667 0.000000
0.200000 0.066667 0.000000
0.266667 0.062745 0.000000
0.333333 0.062745 0.000000
0.400000 0.066667 0.000000
0.466667 0.066667 0.000000
0.533333 0.062745 0.000000
0.600000 0.058824 0.000000
0.666667 0.062745 0.000000
0.733333 0.054902 0.003922
0.800000 0.058824 0.003922
0.866667 0.062745 0.003922
0.933333 0.066667 0.003922
1.000000 0.050980 0.003922
0.000000 0.133333 0.000000
0.066667 0.133333 0.000000
0.133333 0.133333 0.000000
0.200000 0.133333 0.000000
0.266667 0.133333 0.000000
0.333333 0.133333 0.000000
0.400000 0.133333 0.000000
0.466667 0.133333 0.000000
0.533333 0.125490 0.000000
0.600000 0.129412 0.000000
0.666667 0.125490 0.000000
0.733333 0.121569 0.003922
0.800000 0.133333 0.003922
0.866667 0.125490 0.003922
0.933333 0.133333 0.003922
1.000000 0.121569 0.003922
0.000000 0.200000 0.000000
0.066667 0.200000 0.000000
0.137255 0.200000 0.000000
0.200000 0.196078 0.000000
0.266667 0.196078 0.000000
0.333333 0.196078 0.000000
0.400000 0.200000 0.000000
0.466667 0.200000 0.000000
0.533333 0.188235 0.000000
0.600000 0.200000 0.000000
0.666667 0.188235 0.000000
0.733333 0.192157 0.003922
0.800000 0.188235 0.003922
0.866667 0.184314 0.003922
0.933333 0.200000 0.003922
1.000000 0.192157 0.003922
0.000000 0.266667 0.000000
0.070588 0.266667 0.000000
0.133333 0.266667 0.000000
0.200000 0.266667 0.000000
0.266667 0.262745 0.000000
0.333333 0.266667 0.000000
0.400000 0.262745 0.000000
0.466667 0.262745 0.000000
0.533333 0.262745 0.000000
0.600000 0.254902 0.000000
0.666667 0.266667 0.000000
0.733333 0.258824 0.003922
0.800000 0.266667 0.003922
0.866667 0.266667 0.003922
0.933333 0.266667 0.003922
1.000000 0.262745 0.003922
0.000000 0.333333 0.000000
0.070588 0.333333 0.000000
0.133333 0.333333 0.000000
0.203922 0.333333 0.000000
0.266667 0.333333 0.000000
0.333333 0.329412 0.000000
0.400000 0.329412 0.000000
0.466667 0.329412 0.000000
0.533333 0.325490 0.000000
0.600000 0.325490 0.000000
0.666667 0.329412 0.000000
0.733333 0.329412 0.003922
0.800000 0.321569 0.003922
0.866667 0.329412 0.003922
0.933333 0.333333 0.003922
1.000000 0.333333 0.003922
0.000000 0.400000 0.000000
0.066667 0.400000 0.000000
0.133333 0.400000 0.000000
0.200000 0.400000 0.000000
0.274510 0.400000 0.000000
0.337255 0.400000 0.000000
0.400000 0.396078 0.000000
0.466667 0.396078 0.000000
0.533333 0.388235 0.000000
0.600000 0.396078 0.000000
0.666667 0.392157 0.000000
0.733333 0.400000 0.003922
0.800000 0.396078 0.003922
0.866667 0.388235 0.003922
0.933333 0.396078 0.003922
1.000000 0.403922 0.003922
0.000000 0.466667 0.000000
0.066667 0.466667 0.000000
0.133333 0.466667 0.000000
0.200000 0.466667 0.000000
0.274510 0.466667 0.000000
0.341176 0.466667 0.000000
0.407843 0.466667 0.000000
0.466667 0.462745 0.000000
0.533333 0.466667 0.000000
0.600000 0.466667 0.000000
0.666667 0.454902 0.000000
0.733333 0.466667 0.003922
0.800000 0.454902 0.003922
0.866667 0.450980 0.003922
0.933333 0.462745 0.003922
1.000000 0.450980 0.003922
0.000000 0.533333 0.000000
0.062745 0.533333 0.000000
0.141176 0.533333 0.000000
0.200000 0.533333 0.000000
0.262745 0.533333 0.000000
0.341176 0.533333 0.000000
0.403922 0.533333 0.000000
0.466667 0.533333 0.000000
0.533333 0.525490 0.000000
0.600000 0.521569 0.000000
0.666667 0.533333 0.000000
0.733333 0.537255 0.003922
0.800000 0.529412 0.003922
0.866667 0.533333 0.003922
0.933333 0.529412 0.003922
1.000000 0.517647 0.003922
0.000000 0.600000 0.000000
0.070588 0.600000 0.000000
0.141176 0.600000 0.000000
0.200000 0.600000 0.000000
0.270588 0.600000 0.000000
0.341176 0.600000 0.000000
0.411765 0.600000 0.000000
0.466667 0.600000 0.000000
0.537255 0.600000 0.000000
0.600000 0.592157 0.000000
0.666667 0.596078 0.000000
0.733333 0.588235 0.003922
0.800000 0.603922 0.003922
0.866667 0.592157 0.003922
0.933333 0.596078 0.003922
1.000000 0.588235 0.003922
0.000000 0.666667 0.000000
0.062745 0.666667 0.000000
0.141176 0.666667 0.000000
0.203922 0.666667 0.000000
0.266667 0.666667 0.000000
0.329412 0.666667 0.000000
0.407843 0.666667 0.000000
0.470588 0.666667 0.000000
0.533333 0.666667 0.000000
0.611765 0.666667 0.000000
0.666667 0.658824 0.000000
0.733333 0.654902 0.003922
0.800000 0.658824 0.003922
0.866667 0.654902 0.003922
0.933333 0.658824 0.003922
1.000000 0.658824 0.003922
0.003922 0.733333 0.003922
0.070588 0.733333 0.003922
0.141176 0.733333 0.003922
0.207843 0.733333 0.003922
0.278431 0.733333 0.003922
0.345098 0.733333 0.003922
0.400000 0.733333 0.003922
0.466667 0.733333 0.003922
0.537255 0.733333 0.003922
0.603922 0.733333 0.003922
0.674510 0.733333 0.003922
0.733333 0.725490 0.003922
0.800000 0.733333 0.003922
0.866667 0.733333 0.003922
0.933333 0.725490 0.003922
1.000000 0.729412 0.003922
0.003922 0.800000 0.003922
0.078431 0.800000 0.003922
0.133333 0.800000 0.003922
0.207843 0.800000 0.003922
0.266667 0.800000 0.003922
0.341176 0.800000 0.003922
0.396078 0.800000 0.003922
0.470588 0.800000 0.003922
0.545098 0.800000 0.003922
0.603922 0.800000 0.003922
0.678431 0.800000 0.003922
0.733333 0.800000 0.003922
0.800000 0.792157 0.003922
0.866667 0.796078 0.003922
0.933333 0.792157 0.003922
1.000000 0.800000 0.003922
0.003922 0.866667 0.003922
0.062745 0.866667 0.003922
0.145098 0.866667 0.003922
0.207843 0.866667 0.003922
0.266667 0.866667 0.003922
0.349020 0.866667 0.003922
0.407843 0.866667 0.003922
0.470588 0.866667 0.003922
0.533333 0.866667 0.003922
0.611765 0.866667 0.003922
0.674510 0.866667 0.003922
0.733333 0.866667 0.003922
0.815686 0.866667 0.003922
0.866667 0.858824 0.003922
0.933333 0.858824 0.003922
1.000000 0.847059 0.003922
0.003922 0.933333 0.003922
0.066667 0.933333 0.003922
0.133333 0.933333 0.003922
0.200000 0.933333 0.003922
0.266667 0.933333 0.003922
0.333333 0.933333 0.003922
0.396078 0.933333 0.003922
0.462745 0.933333 0.003922
0.549020 0.933333 0.003922
0.615686 0.933333 0.003922
0.682353 0.933333 0.003922
0.749020 0.933333 0.003922
0.811765 0.933333 0.003922
0.878431 0.933333 0.003922
0.933333 0.921569 0.003922
1.000000 0.917647 0.003922
0.003922 1.000000 0.003922
0.074510 1.000000 0.003922
0.145098 1.000000 0.003922
0.215686 1.000000 0.003922
0.286275 1.000000 0.003922
0.333333 1.000000 0.003922
0.403922 1.000000 0.003922
0.474510 1.000000 0.003922
0.541176 1.000000 0.003922
0.611765 1.000000 0.003922
0.682353 1.000000 0.003922
0.729412 1.000000 0.003922
0.800000 1.000000 0.003922
0.870588 1.000000 0.003922
0.941176 1.000000 0.003922
1.000000 0.988235 0.003922
0.000000 0.000000 0.066667
0.066667 0.000000 0.066667
0.133333 0.000000 0.066667
0.200000 0.000000 0.066667
0.266667 0.000000 0.062745
0.333333 0.000000 0.062745
0.400000 0.000000 0.066667
0.466667 0.000000 0.066667
0.533333 0.000000 0.062745
0.600000 0.000000 0.058824
0.666667 0.000000 0.062745
0.733333 0.003922 0.054902
0.800000 0.003922 0.058824
0.866667 0.003922 0.062745
0.933333 0.003922 0.066667
1.000000 0.003922 0.050980
0.000000 0.066667 0.066667
0.066667 0.066667 0.066667
0.133333 0.066667 0.066667
0.200000 0.066667 0.066667
0.266667 0.066667 0.066667
0.333333 0.066667 0.066667
0.400000 0.066667 0.066667
0.466667 0.066667 0.066667
0.533333 0.066667 0.066667
0.600000 0.066667 0.066667
0.666667 0.066667 0.066667
0.733333 0.066667 0.066667
0.800000 0.070588 0.070588
0.866667 0.070588 0.070588
0.933333 0.070588 0.070588
1.000000 0.070588 0.070588
0.000000 0.133333 0.066667
0.066667 0.133333 0.066667
0.133333 0.133333 0.066667
0.200000 0.133333 0.066667
0.266667 0.133333 0.066667
0.333333 0.129412 0.066667
0.400000 0.129412 0.066667
0.466667 0.133333 0.066667
0.533333 0.133333 0.066667
0.600000 0.129412 0.066667
0.666667 0.125490 0.066667
0.733333 0.129412 0.066667
0.800000 0.121569 0.070588
0.866667 0.125490 0.070588
0.933333 0.129412 0.070588
1.000000 0.137255 0.070588
0.000000 0.200000 0.066667
0.066667 0.200000 0.066667
0.133333 0.200000 0.066667
0.200000 0.200000 0.066667
0.266667 0.200000 0.066667
0.333333 0.200000 0.066667
0.400000 0.200000 0.066667
0.466667 0.200000 0.066667
0.533333 0.200000 0.066667
0.600000 0.192157 0.066667
0.666667 0.196078 0.066667
0.733333 0.192157 0.066667
0.800000 0.188235 0.070588
0.866667 0.200000 0.070588
0.933333 0.192157 0.070588
1.000000 0.200000 0.070588
0.000000 0.266667 0.070588
0.066667 0.266667 0.066667
0.133333 0.266667 0.066667
0.203922 0.266667 0.066667
0.266667 0.262745 0.066667
0.333333 0.266667 0.066667
0.400000 0.262745 0.066667
0.466667 0.266667 0.066667
0.533333 0.266667 0.066667
0.600000 0.266667 0.066667
0.666667 0.266667 0.066667
0.733333 0.254902 0.066667
0.800000 0.258824 0.070588
0.866667 0.254902 0.070588
0.933333 0.250980 0.070588
1.000000 0.266667 0.070588
0.000000 0.333333 0.062745
0.066667 0.333333 0.066667
0.137255 0.333333 0.066667
0.200000 0.333333 0.066667
0.266667 0.333333 0.066667
0.333333 0.329412 0.066667
0.400000 0.333333 0.066667
0.466667 0.329412 0.066667
0.533333 0.329412 0.066667
0.600000 0.329412 0.066667
0.666667 0.321569 0.066667
0.733333 0.333333 0.066667
0.800000 0.325490 0.070588
0.866667 0.333333 0.070588
0.933333 0.333333 0.070588
1.000000 0.333333 0.070588
0.000000 0.400000 0.066667
0.066667 0.400000 0.066667
0.137255 0.400000 0.066667
0.200000 0.400000 0.066667
0.270588 0.400000 0.066667
0.333333 0.400000 0.066667
0.400000 0.396078 0.066667
0.466667 0.396078 0.066667
0.533333 0.396078 0.066667
0.600000 0.392157 0.066667
0.666667 0.392157 0.066667
0.733333 0.396078 0.066667
0.800000 0.396078 0.070588
0.866667 0.388235 0.070588
0.933333 0.396078 0.070588
1.000000 0.400000 0.070588
0.000000 0.466667 0.066667
0.066667 0.466667 0.066667
0.133333 0.466667 0.066667
0.200000 0.466667 0.066667
0.266667 0.466667 0.066667
0.341176 0.466667 0.066667
0.403922 0.466667 0.066667
0.466667 0.462745 0.066667
0.533333 0.462745 0.066667
0.600000 0.454902 0.066667
0.666667 0.462745 0.066667
0.733333 0.458824 0.066667
0.800000 0.466667 0.070588
0.866667 0.462745 0.070588
0.933333 0.454902 0.070588
1.000000 0.462745 0.070588
0.000000 0.533333 0.062745
0.066667 0.533333 0.066667
0.133333 0.533333 0.066667
0.200000 0.533333 0.066667
0.266667 0.533333 0.066667
0.341176 0.533333 0.066667
0.407843 0.533333 0.066667
0.474510 0.533333 0.066667
0.533333 0.529412 0.066667
0.600000 0.533333 0.066667
0.666667 0.533333 0.066667
0.733333 0.521569 0.066667
0.800000 0.533333 0.070588
0.866667 0.521569 0.070588
0.933333 0.517647 0.070588
1.000000 0.529412 0.070588
0.000000 0.600000 0.070588
0.066667 0.600000 0.066667
0.129412 0.600000 0.066667
0.207843 0.600000 0.066667
0.266667 0.600000 0.066667
0.329412 0.600000 0.066667
0.407843 0.600000 0.066667
0.470588 0.600000 0.066667
0.533333 0.600000 0.066667
0.600000 0.592157 0.066667
0.666667 0.588235 0.066667
0.733333 0.600000 0.066667
0.800000 0.603922 0.070588
0.866667 0.596078 0.070588
0.933333 0.600000 0.070588
1.000000 0.596078 0.070588
0.000000 0.666667 0.062745
0.066667 0.666667 0.066667
0.137255 0.666667 0.066667
0.207843 0.666667 0.066667
0.266667 0.666667 0.066667
0.337255 0.666667 0.066667
0.407843 0.666667 0.066667
0.478431 0.666667 0.066667
0.533333 0.666667 0.066667
0.603922 0.666667 0.066667
0.666667 0.658824 0.066667
0.733333 0.662745 0.066667
0.800000 0.654902 0.070588
0.866667 0.670588 0.070588
0.933333 0.658824 0.070588
1.000000 0.662745 0.070588
0.003922 0.733333 0.070588
0.066667 0.733333 0.066667
0.129412 0.733333 0.066667
0.207843 0.733333 0.066667
0.270588 0.733333 0.066667
0.333333 0.733333 0.066667
0.396078 0.733333 0.066667
0.474510 0.733333 0.066667
0.537255 0.733333 0.066667
0.600000 0.733333 0.066667
0.678431 0.733333 0.066667
0.733333 0.725490 0.066667
0.800000 0.721569 0.070588
0.866667 0.725490 0.070588
0.933333 0.721569 0.070588
1.000000 0.725490 0.070588
0.003922 0.800000 0.058824
0.070588 0.800000 0.070588
0.137255 0.800000 0.070588
0.207843 0.800000 0.070588
0.274510 0.800000 0.070588
0.345098 0.800000 0.070588
0.411765 0.800000 0.070588
0.466667 0.800000 0.070588
0.533333 0.800000 0.070588
0.603922 0.800000 0.070588
0.670588 0.800000 0.070588
0.741176 0.800000 0.070588
0.800000 0.792157 0.070588
0.866667 0.800000 0.070588
0.933333 0.800000 0.070588
1.000000 0.792157 0.070588
0.003922 0.866667 0.062745
0.070588 0.866667 0.070588
0.145098 0.866667 0.070588
0.200000 0.866667 0.070588
0.274510 0.866667 0.070588
0.333333 0.866667 0.070588
0.407843 0.866667 0.070588
0.462745 0.866667 0.070588
0.537255 0.866667 0.070588
0.611765 0.866667 0.070588
0.670588 0.866667 0.070588
0.745098 0.866667 0.070588
0.800000 0.866667 0.070588
0.866667 0.858824 0.070588
0.933333 0.862745 0.070588
1.000000 0.858824 0.070588
0.003922 0.933333 0.066667
0.070588 0.933333 0.070588
0.129412 0.933333 0.070588
0.211765 0.933333 0.070588
0.274510 0.933333 0.070588
0.333333 0.933333 0.070588
0.415686 0.933333 0.070588
0.474510 0.933333 0.070588
0.537255 0.933333 0.070588
0.600000 0.933333 0.070588
0.678431 0.933333 0.070588
0.741176 0.933333 0.070588
0.800000 0.933333 0.070588
0.882353 0.933333 0.070588
0.933333 0.925490 0.070588
1.000000 0.921569 0.070588
0.003922 1.000000 0.074510
0.070588 1.000000 0.070588
0.137255 1.000000 0.070588
0.200000 1.000000 0.070588
0.266667 1.000000 0.070588
0.333333 1.000000 0.070588
0.400000 1.000000 0.070588
0.462745 1.000000 0.070588
0.529412 1.000000 0.070588
0.615686 1.000000 0.070588
0.682353 1.000000 0.070588
0.749020 1.000000 0.070588
0.815686 1.000000 0.070588
0.878431 1.000000 0.070588
0.945098 1.000000 0.070588
1.000000 0.988235 0.070588
0.000000 0.000000 0.133333
0.070588 0.000000 0.133333
0.133333 0.000000 0.133333
0.200000 0.000000 0.133333
0.266667 0.000000 0.133333
0.333333 0.000000 0.133333
0.400000 0.000000 0.133333
0.466667 0.000000 0.133333
0.533333 0.000000 0.125490
0.600000 0.000000 0.129412
0.666667 0.000000 0.125490
0.733333 0.003922 0.121569
0.800000 0.003922 0.133333
0.866667 0.003922 0.125490
0.933333 0.003922 0.133333
1.000000 0.003922 0.121569
0.000000 0.066667 0.133333
0.066667 0.066667 0.133333
0.133333 0.066667 0.133333
0.200000 0.066667 0.133333
0.266667 0.066667 0.133333
0.333333 0.066667 0.129412
0.400000 0.066667 0.129412
0.466667 0.066667 0.133333
0.533333 0.066667 0.133333
0.600000 0.066667 0.129412
0.666667 0.066667 0.125490
0.733333 0.066667 0.129412
0.800000 0.070588 0.121569
0.866667 0.070588 0.125490
0.933333 0.070588 0.129412
1.000000 0.070588 0.137255
0.000000 0.133333 0.133333
0.066667 0.133333 0.133333
0.133333 0.133333 0.133333
0.200000 0.133333 0.133333
0.266667 0.133333 0.133333
0.333333 0.133333 0.133333
0.400000 0.133333 0.133333
0.466667 0.133333 0.133333
0.533333 0.133333 0.133333
0.600000 0.133333 0.133333
0.666667 0.133333 0.133333
0.733333 0.133333 0.133333
0.800000 0.137255 0.137255
0.866667 0.137255 0.137255
0.933333 0.137255 0.137255
1.000000 0.137255 0.137255
0.000000 0.200000 0.133333
0.066667 0.200000 0.133333
0.133333 0.200000 0.133333
0.200000 0.200000 0.133333
0.266667 0.200000 0.133333
0.333333 0.200000 0.133333
0.400000 0.196078 0.133333
0.466667 0.196078 0.133333
0.533333 0.200000 0.133333
0.600000 0.200000 0.133333
0.666667 0.196078 0.133333
0.733333 0.192157 0.133333
0.800000 0.196078 0.137255
0.866667 0.188235 0.137255
0.933333 0.192157 0.137255
1.000000 0.196078 0.137255
0.000000 0.266667 0.133333
0.066667 0.266667 0.133333
0.133333 0.266667 0.133333
0.200000 0.266667 0.133333
0.266667 0.266667 0.133333
0.333333 0.266667 0.133333
0.400000 0.266667 0.133333
0.466667 0.266667 0.133333
0.533333 0.266667 0.133333
0.600000 0.266667 0.133333
0.666667 0.258824 0.133333
0.733333 0.262745 0.133333
0.800000 0.258824 0.137255
0.866667 0.254902 0.137255
0.933333 0.266667 0.137255
1.000000 0.258824 0.137255
0.000000 0.333333 0.133333
0.066667 0.333333 0.137255
0.133333 0.333333 0.133333
0.200000 0.333333 0.133333
0.270588 0.333333 0.133333
0.333333 0.329412 0.133333
0.400000 0.333333 0.133333
0.466667 0.329412 0.133333
0.533333 0.333333 0.133333
0.600000 0.333333 0.133333
0.666667 0.321569 0.133333
0.733333 0.333333 0.133333
0.800000 0.321569 0.137255
0.866667 0.325490 0.137255
0.933333 0.321569 0.137255
1.000000 0.317647 0.137255
0.000000 0.400000 0.133333
0.066667 0.400000 0.129412
0.133333 0.400000 0.133333
0.203922 0.400000 0.133333
0.266667 0.400000 0.133333
0.333333 0.400000 0.133333
0.400000 0.396078 0.133333
0.466667 0.400000 0.133333
0.533333 0.396078 0.133333
0.600000 0.396078 0.133333
0.666667 0.396078 0.133333
0.733333 0.388235 0.133333
0.800000 0.400000 0.137255
0.866667 0.392157 0.137255
0.933333 0.400000 0.137255
1.000000 0.400000 0.137255
0.000000 0.466667 0.133333
0.066667 0.466667 0.133333
0.133333 0.466667 0.133333
0.203922 0.466667 0.133333
0.266667 0.466667 0.133333
0.337255 0.466667 0.133333
0.400000 0.466667 0.133333
0.466667 0.462745 0.133333
0.533333 0.462745 0.133333
0.600000 0.462745 0.133333
0.666667 0.458824 0.133333
0.733333 0.458824 0.133333
0.800000 0.462745 0.137255
0.866667 0.462745 0.137255
0.933333 0.454902 0.137255
1.000000 0.462745 0.137255
0.000000 0.533333 0.141176
0.066667 0.533333 0.133333
0.133333 0.533333 0.133333
0.200000 0.533333 0.133333
0.266667 0.533333 0.133333
0.333333 0.533333 0.133333
0.407843 0.533333 0.133333
0.470588 0.533333 0.133333
0.533333 0.529412 0.133333
0.600000 0.529412 0.133333
0.666667 0.537255 0.133333
0.733333 0.529412 0.133333
0.800000 0.525490 0.137255
0.866667 0.533333 0.137255
0.933333 0.529412 0.137255
1.000000 0.521569 0.137255
0.000000 0.600000 0.129412
0.066667 0.600000 0.129412
0.133333 0.600000 0.133333
0.200000 0.600000 0.133333
0.266667 0.600000 0.133333
0.333333 0.600000 0.133333
0.407843 0.600000 0.133333
0.474510 0.600000 0.133333
0.541176 0.600000 0.133333
0.600000 0.596078 0.133333
0.666667 0.600000 0.133333
0.733333 0.600000 0.133333
0.800000 0.588235 0.137255
0.866667 0.600000 0.137255
0.933333 0.588235 0.137255
1.000000 0.584314 0.137255
0.000000 0.666667 0.125490
0.066667 0.666667 0.137255
0.133333 0.666667 0.133333
0.196078 0.666667 0.133333
0.274510 0.666667 0.133333
0.333333 0.666667 0.133333
0.396078 0.666667 0.133333
0.474510 0.666667 0.133333
0.537255 0.666667 0.133333
0.600000 0.666667 0.133333
0.666667 0.658824 0.133333
0.733333 0.654902 0.133333
0.800000 0.666667 0.137255
0.866667 0.670588 0.137255
0.933333 0.662745 0.137255
1.000000 0.666667 0.137255
0.003922 0.733333 0.141176
0.066667 0.733333 0.129412
0.133333 0.733333 0.133333
0.203922 0.733333 0.133333
0.274510 0.733333 0.133333
0.333333 0.733333 0.133333
0.403922 0.733333 0.133333
0.474510 0.733333 0.133333
0.545098 0.733333 0.133333
0.600000 0.733333 0.133333
0.670588 0.733333 0.133333
0.733333 0.725490 0.133333
0.800000 0.729412 0.137255
0.866667 0.721569 0.137255
0.933333 0.737255 0.137255
1.000000 0.725490 0.137255
0.003922 0.800000 0.133333
0.070588 0.800000 0.137255
0.137255 0.800000 0.137255
0.196078 0.800000 0.137255
0.274510 0.800000 0.137255
0.337255 0.800000 0.137255
0.400000 0.800000 0.137255
0.462745 0.800000 0.137255
0.541176 0.800000 0.137255
0.603922 0.800000 0.137255
0.666667 0.800000 0.137255
0.745098 0.800000 0.137255
0.800000 0.792157 0.137255
0.866667 0.788235 0.137255
0.933333 0.792157 0.137255
1.000000 0.788235 0.137255
0.003922 0.866667 0.125490
0.070588 0.866667 0.125490
0.137255 0.866667 0.137255
0.203922 0.866667 0.137255
0.274510 0.866667 0.137255
0.341176 0.866667 0.137255
0.411765 0.866667 0.137255
0.478431 0.866667 0.137255
0.533333 0.866667 0.137255
0.600000 0.866667 0.137255
0.670588 0.866667 0.137255
0.737255 0.866667 0.137255
0.807843 0.866667 0.137255
0.866667 0.858824 0.137255
0.933333 0.866667 0.137255
1.000000 0.866667 0.137255
0.003922 0.933333 0.133333
0.070588 0.933333 0.129412
0.137255 0.933333 0.137255
0.211765 0.933333 0.137255
0.266667 0.933333 0.137255
0.341176 0.933333 0.137255
0.400000 0.933333 0.137255
0.474510 0.933333 0.137255
0.529412 0.933333 0.137255
0.603922 0.933333 0.137255
0.678431 0.933333 0.137255
0.737255 0.933333 0.137255
0.811765 0.933333 0.137255
0.866667 0.933333 0.137255
0.933333 0.925490 0.137255
1.000000 0.929412 0.137255
0.003922 1.000000 0.145098
0.070588 1.000000 0.137255
0.137255 1.000000 0.137255
0.196078 1.000000 0.137255
0.278431 1.000000 0.137255
0.341176 1.000000 0.137255
0.400000 1.000000 0.137255
0.482353 1.000000 0.137255
0.541176 1.000000 0.137255
0.603922 1.000000 0.137255
0.666667 1.000000 0.137255
0.745098 1.000000 0.137255
0.807843 1.000000 0.137255
0.866667 1.000000 0.137255
0.949020 1.000000 0.137255
1.000000 0.988235 0.137255
0.000000 0.000000 0.200000
0.066667 0.000000 0.200000
0.137255 0.000000 0.200000
0.200000 0.000000 0.196078
0.266667 0.000000 0.196078
0.333333 0.000000 0.196078
0.400000 0.000000 0.200000
0.466667 0.000000 0.200000
0.533333 0.000000 0.188235
0.600000 0.000000 0.200000
0.666667 0.000000 0.188235
0.733333 0.003922 0.192157
0.800000 0.003922 0.188235
0.866667 0.003922 0.184314
0.933333 0.003922 0.200000
1.000000 0.003922 0.192157
0.000000 0.066667 0.200000
0.066667 0.066667 0.200000
0.137255 0.066667 0.200000
0.200000 0.066667 0.200000
0.266667 0.066667 0.200000
0.333333 0.066667 0.200000
0.400000 0.066667 0.200000
0.466667 0.066667 0.200000
0.533333 0.066667 0.200000
0.600000 0.066667 0.192157
0.666667 0.066667 0.196078
0.733333 0.066667 0.192157
0.800000 0.070588 0.188235
0.866667 0.070588 0.200000
0.933333 0.070588 0.192157
1.000000 0.070588 0.200000
0.000000 0.133333 0.200000
0.066667 0.133333 0.200000
0.133333 0.133333 0.200000
0.200000 0.133333 0.200000
0.266667 0.133333 0.200000
0.333333 0.133333 0.200000
0.400000 0.133333 0.196078
0.466667 0.133333 0.196078
0.533333 0.133333 0.200000
0.600000 0.133333 0.200000
0.666667 0.133333 0.196078
0.733333 0.133333 0.192157
0.800000 0.137255 0.196078
0.866667 0.137255 0.188235
0.933333 0.137255 0.192157
1.000000 0.137255 0.196078
0.000000 0.196078 0.200000
0.066667 0.200000 0.200000
0.133333 0.200000 0.200000
0.200000 0.200000 0.200000
0.266667 0.200000 0.200000
0.333333 0.200000 0.200000
0.400000 0.200000 0.200000
0.466667 0.200000 0.200000
0.533333 0.200000 0.200000
0.600000 0.200000 0.200000
0.666667 0.200000 0.200000
0.733333 0.200000 0.200000
0.800000 0.200000 0.200000
0.866667 0.203922 0.203922
0.933333 0.203922 0.203922
1.000000 0.203922 0.203922
0.000000 0.266667 0.200000
0.066667 0.266667 0.200000
0.133333 0.266667 0.200000
0.200000 0.266667 0.200000
0.266667 0.266667 0.200000
0.333333 0.266667 0.200000
0.400000 0.266667 0.200000
0.466667 0.262745 0.200000
0.533333 0.262745 0.200000
0.600000 0.266667 0.200000
0.666667 0.266667 0.200000
0.733333 0.262745 0.200000
0.800000 0.258824 0.200000
0.866667 0.262745 0.203922
0.933333 0.254902 0.203922
1.000000 0.258824 0.203922
0.000000 0.333333 0.196078
0.066667 0.333333 0.200000
0.133333 0.333333 0.200000
0.200000 0.333333 0.200000
0.266667 0.333333 0.200000
0.333333 0.333333 0.200000
0.400000 0.333333 0.200000
0.466667 0.333333 0.200000
0.533333 0.333333 0.200000
0.600000 0.333333 0.200000
0.666667 0.333333 0.200000
0.733333 0.325490 0.200000
0.800000 0.329412 0.200000
0.866667 0.325490 0.203922
0.933333 0.321569 0.203922
1.000000 0.333333 0.203922
0.000000 0.400000 0.200000
0.066667 0.400000 0.200000
0.133333 0.400000 0.203922
0.200000 0.400000 0.200000
0.266667 0.400000 0.200000
0.337255 0.400000 0.200000
0.400000 0.396078 0.200000
0.466667 0.400000 0.200000
0.533333 0.396078 0.200000
0.600000 0.400000 0.200000
0.666667 0.400000 0.200000
0.733333 0.388235 0.200000
0.800000 0.400000 0.200000
0.866667 0.388235 0.203922
0.933333 0.392157 0.203922
1.000000 0.392157 0.203922
0.000000 0.466667 0.200000
0.066667 0.466667 0.200000
0.133333 0.466667 0.196078
