ClownTown_Unity/Assets/ClownTown/Settings/PostProcessing/SnowBros.CUBE
#Created by www.Photopea.com
TITLE "SnowBros.psd"
#LUT size
LUT_3D_SIZE 6
#data domain
DOMAIN_MIN 0.0 0.0 0.0
DOMAIN_MAX 1.0 1.0 1.0
#LUT data points
0.000000 0.000000 0.000000
0.200000 0.000000 0.000000
0.400000 0.000000 0.000000
0.600000 0.000000 0.000000
0.800000 0.003922 0.003922
1.000000 0.003922 0.003922
0.000000 0.200000 0.000000
0.200000 0.196078 0.000000
0.400000 0.200000 0.000000
0.600000 0.200000 0.000000
0.800000 0.188235 0.003922
1.000000 0.192157 0.003922
0.000000 0.400000 0.000000
0.200000 0.400000 0.000000
0.400000 0.396078 0.000000
0.600000 0.396078 0.000000
0.800000 0.396078 0.003922
1.000000 0.403922 0.003922
0.000000 0.600000 0.000000
0.200000 0.600000 0.000000
0.411765 0.600000 0.000000
0.600000 0.592157 0.000000
0.800000 0.603922 0.003922
1.000000 0.588235 0.003922
0.003922 0.800000 0.003922
0.207843 0.800000 0.003922
0.396078 0.800000 0.003922
0.603922 0.800000 0.003922
0.800000 0.792157 0.003922
1.000000 0.800000 0.003922
0.003922 1.000000 0.003922
0.215686 1.000000 0.003922
0.403922 1.000000 0.003922
0.611765 1.000000 0.003922
0.800000 1.000000 0.003922
1.000000 0.988235 0.003922
0.000000 0.000000 0.200000
0.200000 0.000000 0.196078
0.400000 0.000000 0.200000
0.600000 0.000000 0.200000
0.800000 0.003922 0.188235
1.000000 0.003922 0.192157
0.000000 0.196078 0.200000
0.200000 0.200000 0.200000
0.400000 0.200000 0.200000
0.600000 0.200000 0.200000
0.800000 0.200000 0.200000
1.000000 0.203922 0.203922
0.000000 0.400000 0.200000
0.200000 0.400000 0.200000
0.400000 0.396078 0.200000
0.600000 0.400000 0.200000
0.800000 0.400000 0.200000
1.000000 0.392157 0.203922
0.000000 0.600000 0.200000
0.200000 0.600000 0.200000
0.400000 0.600000 0.200000
0.600000 0.596078 0.200000
0.800000 0.596078 0.200000
1.000000 0.596078 0.203922
0.003922 0.800000 0.207843
0.200000 0.800000 0.200000
0.400000 0.800000 0.200000
0.611765 0.800000 0.200000
0.800000 0.792157 0.200000
1.000000 0.803922 0.203922
0.003922 1.000000 0.192157
0.203922 1.000000 0.203922
0.407843 1.000000 0.203922
0.596078 1.000000 0.203922
0.803922 1.000000 0.203922
1.000000 0.992157 0.203922
0.000000 0.000000 0.400000
0.207843 0.000000 0.400000
0.400000 0.000000 0.396078
0.600000 0.000000 0.396078
0.800000 0.003922 0.396078
1.000000 0.003922 0.403922
0.000000 0.200000 0.400000
0.200000 0.200000 0.400000
0.400000 0.200000 0.396078
0.600000 0.200000 0.400000
0.800000 0.200000 0.400000
1.000000 0.203922 0.392157
0.000000 0.396078 0.400000
0.200000 0.396078 0.400000
0.400000 0.400000 0.400000
0.600000 0.400000 0.400000
0.800000 0.400000 0.400000
1.000000 0.403922 0.403922
0.000000 0.600000 0.396078
0.200000 0.600000 0.400000
0.400000 0.600000 0.400000
0.600000 0.596078 0.400000
0.800000 0.600000 0.400000
1.000000 0.600000 0.403922
0.003922 0.800000 0.396078
0.200000 0.800000 0.400000
0.400000 0.800000 0.400000
0.600000 0.800000 0.400000
0.800000 0.796078 0.400000
1.000000 0.796078 0.403922
0.003922 1.000000 0.403922
0.203922 1.000000 0.407843
0.403922 1.000000 0.403922
0.600000 1.000000 0.403922
0.811765 1.000000 0.403922
1.000000 0.992157 0.403922
0.000000 0.000000 0.600000
0.200000 0.000000 0.600000
0.411765 0.000000 0.600000
0.600000 0.000000 0.592157
0.800000 0.003922 0.584314
1.000000 0.003922 0.588235
0.000000 0.200000 0.600000
0.200000 0.200000 0.600000
0.407843 0.200000 0.600000
0.600000 0.200000 0.596078
0.800000 0.200000 0.596078
1.000000 0.203922 0.596078
0.000000 0.396078 0.600000
0.200000 0.400000 0.600000
0.400000 0.400000 0.600000
0.600000 0.400000 0.596078
0.800000 0.400000 0.600000
1.000000 0.403922 0.600000
0.000000 0.592157 0.600000
0.200000 0.596078 0.600000
0.400000 0.596078 0.600000
0.600000 0.600000 0.600000
0.800000 0.600000 0.600000
1.000000 0.600000 0.600000
0.003922 0.800000 0.603922
0.200000 0.800000 0.596078
0.400000 0.800000 0.600000
0.600000 0.800000 0.600000
0.800000 0.796078 0.600000
1.000000 0.800000 0.600000
0.003922 1.000000 0.588235
0.203922 1.000000 0.596078
0.403922 1.000000 0.600000
0.600000 1.000000 0.600000
0.800000 1.000000 0.600000
1.000000 0.996078 0.600000
0.003922 0.003922 0.800000
0.207843 0.003922 0.800000
0.415686 0.003922 0.800000
0.603922 0.003922 0.800000
0.800000 0.003922 0.792157
1.000000 0.003922 0.800000
0.003922 0.188235 0.800000
0.200000 0.200000 0.800000
0.400000 0.200000 0.800000
0.611765 0.200000 0.800000
0.800000 0.200000 0.792157
1.000000 0.203922 0.784314
0.003922 0.396078 0.800000
0.200000 0.400000 0.800000
0.400000 0.400000 0.800000
0.607843 0.400000 0.800000
0.800000 0.400000 0.796078
1.000000 0.403922 0.796078
0.003922 0.603922 0.800000
0.200000 0.596078 0.800000
0.400000 0.600000 0.800000
0.600000 0.600000 0.800000
0.800000 0.600000 0.796078
1.000000 0.600000 0.800000
0.003922 0.792157 0.800000
0.200000 0.792157 0.800000
0.400000 0.796078 0.800000
0.600000 0.796078 0.800000
0.800000 0.800000 0.800000
1.000000 0.800000 0.800000
0.003922 1.000000 0.800000
0.203922 1.000000 0.803922
0.403922 1.000000 0.796078
0.600000 1.000000 0.800000
0.800000 1.000000 0.800000
1.000000 0.996078 0.800000
0.003922 0.003922 1.000000
0.215686 0.003922 1.000000
0.403922 0.003922 1.000000
0.611765 0.003922 1.000000
0.800000 0.003922 1.000000
1.000000 0.003922 0.988235
0.003922 0.192157 1.000000
0.203922 0.203922 1.000000
0.407843 0.203922 1.000000
0.615686 0.203922 1.000000
0.803922 0.203922 1.000000
1.000000 0.203922 0.992157
0.003922 0.403922 1.000000
0.203922 0.392157 1.000000
0.403922 0.403922 1.000000
0.600000 0.403922 1.000000
0.811765 0.403922 1.000000
1.000000 0.403922 0.992157
0.003922 0.588235 1.000000
0.203922 0.596078 1.000000
0.403922 0.600000 1.000000
0.600000 0.600000 1.000000
0.807843 0.600000 1.000000
1.000000 0.600000 0.996078
0.003922 0.800000 1.000000
0.203922 0.803922 1.000000
0.403922 0.796078 1.000000
0.600000 0.800000 1.000000
0.800000 0.800000 1.000000
1.000000 0.800000 0.996078
0.003922 0.988235 1.000000
0.203922 0.992157 1.000000
0.403922 0.992157 1.000000
0.600000 0.996078 1.000000
0.800000 0.996078 1.000000
1.000000 1.000000 1.000000
